!!!OTL: WONI GEH UND STEH
!!!ARE: Europa, Mitteleuropa, Oesterreich, Steiermark
!!!SCT: B0531
!!!YEM: Copyright 1995, estate of Helmut Schaffrath.
**kern
*ICvox
*Ivox
*M3/4
*k[]
*C:
{8e
8f
=1
8.g
16cc
4cc
8.dd
16cc
=2
8.a
16d
4f}
{8.d
16c
=3
8.B
16d
8.b
16a
8.g
16f
=4
2e}
{8e
8f
=5
8.g
16cc
4cc
8.dd
16cc
=6
8.a
16d
4f}
{8.d
16c
=7
8.B
16d
8.b
16a
8.g
16B
=8
4c
8r}
{8g
8a
8g
=9
8g
8gg
8ff
8g
8a
8g
=10
8g
8ff
8ee}
{8dd
8cc
8b
=11
4a
8ff
8b
8ff
8b
=12
8cc
8ee
8g}
{8g
8a
8g
=13
8g
8gg
8ff
8g
8a
8g
=14
8g
8ff
8ee}
{8dd
8cc
8b
=15
4a
8ff
8b
8ff
8b
=16
4cc
4r}
==
!!!AGN: Wander -, Heimat - Lied
!!!ONB: ESAC (Essen Associative Code) Database: BOEHME
!!!AMT: simple triple
!!!AIN: vox
!!!EED: Helmut Schaffrath
!!!EEV: 1.0
*-
